X:1
T:Title
%%score [ ( 1 2 ) ( 3 4 ) ] { ( 5 6 ) | ( 7 8 ) }
L:1/8
Q:1/4=120
M:4/4
K:Bb
V:1 treble nm="Midi_74"
V:2 treble 
V:3 bass nm="Midi_74"
V:4 bass 
V:5 treble nm="Org."
V:6 treble 
V:7 bass 
V:8 bass 
V:1
 D8 | F4"^Recte et Retro." B4 |{B} A8 || B8 | A4 f4 | e4 d4 |{d} c8 || A8 | B4 F4 |{E} D8 || c8 | %11
 d4"^William Henry Havergal\n(1793-1870)" e4 | f4 A4 | B8 |] %14
V:2
 B,8 | C4 F4 | F8 || D8 | F4 (F2 D2) | E4 F4 | F8 || F8 | F4 C4 | B,8 || (C6 F2) | F4 E4 | %12
 (D2 F2) F4 | D8 |] %14
V:3
 F,8 | (F,2 C2) B,4 | C8 || B,8 | C4 B,4 | B,4 B,4 |{B,} A,8 || C8 | B,4 (C2 F,2) | F,8 || A,8 | %11
 B,4 B,4 | B,4 C4 | B,8 |] %14
V:4
 B,,8 | A,,4 D,4 | F,8 || B,,8 | F,4 D,4 | G,4 B,4 | F,8 || F,8 | D,4 A,,4 | B,,8 || F,8 | %11
 B,4 G,4 | D,4 F,4 | B,,8 |] %14
V:5
 D8 | F4 B4 |{B} A8 || B8 | A4 f4 | [Be]4 d4 |{d} c8 || A8 | B4 F4 |{E} D8 || [Ac]8 | d4 [Be]4 | %12
 f4 A4 | B8 |] %14
V:6
 B,8 | C4 [B,F]4 |{D} [CF]8 || [DF]8 | [CF]4 [FB]4 | G2 E2 [FB]4 |{B} [FA]8 || [CF]8 | [B,F]4 C4 | %9
 B,8 || C6 F2 | [FB]4 E2 G2 | [FB]4 [CF]4 | [DF]8 |] %14
V:7
 x8 | x8 | x8 || x8 | x8 | x8 | x8 || x8 | x4 C2 F,2 | F,8 || x8 | x8 | x8 | x8 |] %14
V:8
 B,,8 | A,,4 D,4 | F,8 || B,,8 | F,4 D,4 | G,4 B,4 | F,8 || F,8 | D,4 A,,4 | B,,8 || F,8 | %11
 B,4 G,4 | D,4 F,4 | B,,8 |] %14

